X:1
T:Title
%%score 1 { ( 2 4 ) | 3 }
L:1/8
M:6/4
K:Ab
V:1 treble nm="Grand Piano"
V:2 bass nm="Grand Piano"
V:4 bass 
V:3 bass 
V:1
 z6 z4[Q:1/4=126] C2 | C2 C2 D2 E2 D2 C2 | C6 B,4 D2 | D2 D2 D2 F2 E3 D |[M:5/4] C2- C2- C6 | %5
[M:1/4] C2 |[M:6/4] C2 C2 D2 E2 D2 C2 | F6 E4 D2 | C2 E2 C2 D2 D3 D |[M:5/4] C2- C2- C6 | %10
[M:1/4] [CA]2 |[M:6/4] [DB]3 [DB] [DB]2 [DB]2 [CA]2 [DG]2 | [CA]6 [CE]4 [Ec]2 | %13
 [Ed]3 [Ee] [Ed]2 [Ec]2 [EB]2 [=DA]2 |[M:5/4] [EB]2- [EB]2- [EB]6 |[M:1/4] [CE]2 | %16
[M:6/4] [CA]3 [DA] [EA]2 [FA]2 [EG]2 [DF]2 | [CE]6 [EA]4 [Ec]2 | %18
[M:7/4] [FB]2 [FB]3 F2 [EA]2 [EA]3 [DG]2 |[M:5/4] [CA]2- [CA]2- [CA]6 |] %20
V:2
 z6 z4 E,2 | E,2 A,2 B,2 C2 B,2 A,2 | A,6 G,4 E,2 | z2 G,2 B,2 D2 C3 B, |[M:5/4] A,2- A,2- A,6 | %5
[M:1/4] E,2 |[M:6/4] E,2 A,2 B,2 C2 B,2 A,2 | A,6 G,4 F,2 | z2 C2 A,2 B,2 F,3 G, | %9
[M:5/4] A,2- A,2- A,6 |[M:1/4] A,2 |[M:6/4] G,3 G, G,2 G,2 A,2 B,2 | A,6 A,4 A,2 | %13
 B,3 B, B,2 A,2 B,2 B,2 |[M:5/4] G,2- G,2- G,6 |[M:1/4] A,2 |[M:6/4] A,3 A, A,2 A,2 A,2 A,2 | %17
 A,6[K:treble] C4 C2 |[M:7/4] D2 D3 A,2 C2[K:bass] C3 B,2 |[M:5/4] A,2- A,2- A,6 |] %20
V:3
 z12 | .A,,6 .A,,6 | [E,,E,]12 | z6 .E,6 |[M:5/4] A,,2- A,,2- A,,6 |[M:1/4] z2 | %6
[M:6/4] .A,,6 .A,,6 | [D,,D,]12 | z6 .E,6 |[M:5/4] A,,2- A,,2- A,,6 |[M:1/4] A,,2 | %11
[M:6/4] E,3 E, E,2 E,2 E,2 E,2 | A,,6 .A,,6 | G,3 G, G,2 z2 G,2 F,2 |[M:5/4] E,2- E,2- E,6 | %15
[M:1/4] A,,2 |[M:6/4] A,,3 B,, C,2 D,2 D,2 D,2 | A,,6 A,,4 A,,2 |[M:7/4] D,2 D,3 D,2 E,2 E,3 E,2 | %19
[M:5/4] A,,2- A,,2- A,,6 |] %20
V:4
 x12 | x12 | x12 | .E,6 z6 |[M:5/4] x10 |[M:1/4] x2 |[M:6/4] x12 | x12 | .E,6 z6 |[M:5/4] x10 | %10
[M:1/4] x2 |[M:6/4] x12 | x12 | x12 |[M:5/4] x10 |[M:1/4] x2 |[M:6/4] x12 | x6[K:treble] x6 | %18
[M:7/4] x9[K:bass] x5 |[M:5/4] x10 |] %20

